!!!OTL: EIA POPEIA WAS RASSELT IM STROH
!!!ARE: Europa, Mitteleuropa, Deutschland, Thueringen
!!!SCT: K0050
!!!YEM: Copyright 1995, estate of Helmut Schaffrath.
**kern
*ICvox
*Ivox
*M3/8
*k[f#]
*G:
=1
{8.dd
16ee
8dd
=2
8b
8a
8b
=3
8g
8f#
8g
=4
4d
8r}
=5
{8.dd
16ee
8dd
=6
8b
8a
8b
=7
8g
8f#
8g
=8
4d
8r}
=9
{8.g
16f#
8g
=10
8.a
16g
8a
=11
8dd
8dd
8dd
=12
4a}
{8cc
=13
8.b
16a
16g
16g
=14
4a
8d
=15
4g
8g
=16
4.g}
==
!!!AGN: Kinder -, Wiegen - Lied
!!!ONB: ESAC (Essen Associative Code) Database: KINDER
!!!AMT: simple triple
!!!AIN: vox
!!!EED: Helmut Schaffrath
!!!EEV: 1.0
*-
